Newaita-dark/actions/24/media-skip-forward.svg

<svg height="24" viewBox="0 0 24 24" width="24" xmlns="http://www.w3.org/2000/svg"><g fill="#e0e0e0"><path d="m2.976562 6.144531c-.554687-.007812-1.007812.4375-1.007812.988281v9.921876c0 .804687.910156 1.273437 1.5625.804687l6.945312-4.960937c.550782-.394532.550782-1.214844 0-1.605469l-6.945312-4.964844c-.164062-.113281-.355469-.179687-.554688-.183594zm0 0"/><path d="m11.90625 6.144531c-.550781-.007812-1.007812.4375-1.007812.988281v9.921876c0 .804687.910156 1.273437 1.5625.804687l6.945312-4.960937c.550781-.394532.550781-1.214844 0-1.605469l-6.945312-4.964844c-.160157-.113281-.355469-.179687-.554688-.183594zm0 0"/><path d="m20.339844 6.140625h.996094c.273437 0 .496093.222656.496093.496094v10.914062c0 .277344-.222656.496094-.496093.496094h-.996094c-.273438 0-.496094-.21875-.496094-.496094v-10.914062c0-.273438.222656-.496094.496094-.496094zm0 0"/></g></svg>

<svg xmlns="http://www.w3.org/2000/svg" xmlns:xlink="http://www.w3.org/1999/xlink" width="24px" height="24px" viewBox="0 0 24 24" version="1.1">
<g id="surface1">
     <defs>
  <style id="current-color-scheme" type="text/css">
   .ColorScheme-Text { color:#eeeeee; } .ColorScheme-Highlight { color:#424242; }
  </style>
 </defs>
<path style="fill:currentColor" class="ColorScheme-Text" d="M 2.976562 6.144531 C 2.421875 6.136719 1.96875 6.582031 1.96875 7.132812 L 1.96875 17.054688 C 1.96875 17.859375 2.878906 18.328125 3.53125 17.859375 L 10.476562 12.898438 C 11.027344 12.503906 11.027344 11.683594 10.476562 11.292969 L 3.53125 6.328125 C 3.367188 6.214844 3.175781 6.148438 2.976562 6.144531 Z M 2.976562 6.144531 "/>
     <defs>
  <style id="current-color-scheme" type="text/css">
   .ColorScheme-Text { color:#eeeeee; } .ColorScheme-Highlight { color:#424242; }
  </style>
 </defs>
<path style="fill:currentColor" class="ColorScheme-Text" d="M 11.90625 6.144531 C 11.355469 6.136719 10.898438 6.582031 10.898438 7.132812 L 10.898438 17.054688 C 10.898438 17.859375 11.808594 18.328125 12.460938 17.859375 L 19.40625 12.898438 C 19.957031 12.503906 19.957031 11.683594 19.40625 11.292969 L 12.460938 6.328125 C 12.300781 6.214844 12.105469 6.148438 11.90625 6.144531 Z M 11.90625 6.144531 "/>
     <defs>
  <style id="current-color-scheme" type="text/css">
   .ColorScheme-Text { color:#eeeeee; } .ColorScheme-Highlight { color:#424242; }
  </style>
 </defs>
<path style="fill:currentColor" class="ColorScheme-Text" d="M 20.339844 6.140625 L 21.335938 6.140625 C 21.609375 6.140625 21.832031 6.363281 21.832031 6.636719 L 21.832031 17.550781 C 21.832031 17.828125 21.609375 18.046875 21.335938 18.046875 L 20.339844 18.046875 C 20.066406 18.046875 19.84375 17.828125 19.84375 17.550781 L 19.84375 6.636719 C 19.84375 6.363281 20.066406 6.140625 20.339844 6.140625 Z M 20.339844 6.140625 "/>
</g>
</svg>
